polaris-icons/icons/new-icons/FraudProtectMinor.svg

<svg width="20" height="20" viewBox="0 0 20 20" fill="none" xmlns="http://www.w3.org/2000/svg">
<path d="M8.90679 2.91473C9.54592 2.40342 10.4541 2.40342 11.0932 2.91473L11.4472 3.19794C12.4103 3.96842 13.4633 4.61922 14.5832 5.13607L15.4834 5.55153C16.0962 5.8344 16.5171 6.46051 16.485 7.17392C16.4538 7.8706 16.3744 8.52627 16.2557 9.14253C16.1773 9.54926 15.7841 9.81545 15.3773 9.73708C14.9706 9.6587 14.7044 9.26545 14.7828 8.85872C14.8876 8.31493 14.9585 7.73166 14.9865 7.10666C14.9895 7.04075 14.9502 6.95751 14.8548 6.91347L13.9546 6.49801C12.7246 5.93032 11.568 5.2155 10.5102 4.36924L10.1562 4.08603C10.0649 4.01299 9.93513 4.01299 9.84383 4.08603L9.52692 4.33956C8.44349 5.20631 7.25656 5.93508 5.99342 6.50913L5.14657 6.89399C5.05113 6.93736 5.01058 7.0215 5.0136 7.08863C5.16214 10.3919 6.50418 12.5709 7.79417 13.9279C8.4429 14.6103 9.08165 15.0876 9.55449 15.3923C9.79056 15.5444 9.98411 15.6528 10.1152 15.7216C10.1807 15.756 10.2305 15.7805 10.262 15.7955C10.2777 15.803 10.2889 15.8082 10.2952 15.8111L10.2997 15.8131C10.6791 15.9785 10.8529 16.42 10.6878 16.7997C10.5226 17.1795 10.0808 17.3536 9.70096 17.1884L10 16.5006C9.70096 17.1884 9.70136 17.1886 9.70096 17.1884L9.69927 17.1877L9.69709 17.1867L9.69123 17.1841L9.67369 17.1762C9.65945 17.1698 9.64016 17.1608 9.61614 17.1494C9.56811 17.1265 9.50112 17.0934 9.4178 17.0497C9.25126 16.9622 9.01891 16.8316 8.74193 16.6531C8.18868 16.2966 7.45272 15.7458 6.70701 14.9614C5.20811 13.3847 3.68233 10.8746 3.51511 7.15602C3.4829 6.4396 3.90734 5.80954 4.52596 5.5284L5.37281 5.14354C6.52283 4.62089 7.60347 3.95738 8.58988 3.16826L8.90679 2.91473Z" fill="#4A4A4A"/>
<path d="M14.0175 14.7505H13.9824C12.9511 14.7505 12.0052 15.3239 11.5281 16.2383C11.2877 16.699 11.622 17.2505 12.1417 17.2505H15.8583C16.378 17.2505 16.7123 16.699 16.4719 16.2383C15.9948 15.3239 15.0489 14.7505 14.0175 14.7505Z" fill="#4A4A4A"/>
<path d="M14 13.7505C14.8284 13.7505 15.5 13.0789 15.5 12.2505C15.5 11.4221 14.8284 10.7505 14 10.7505C13.1716 10.7505 12.5 11.4221 12.5 12.2505C12.5 13.0789 13.1716 13.7505 14 13.7505Z" fill="#4A4A4A"/>
</svg>

<svg viewBox="0 0 20 20" xmlns="http://www.w3.org/2000/svg"><path d="M8.907 2.915a1.75 1.75 0 0 1 2.186 0l.354.283c.963.77 2.016 1.421 3.136 1.938l.9.416a1.709 1.709 0 0 1 1.002 1.622c-.031.697-.11 1.352-.23 1.969a.75.75 0 0 1-1.472-.284c.105-.544.176-1.127.204-1.752.002-.066-.037-.15-.132-.194l-.9-.415a16.75 16.75 0 0 1-3.445-2.129l-.354-.283a.25.25 0 0 0-.312 0l-.317.254a16.75 16.75 0 0 1-3.534 2.17l-.846.384c-.096.043-.136.127-.133.195.148 3.303 1.49 5.482 2.78 6.839a9.71 9.71 0 0 0 1.76 1.464 7.378 7.378 0 0 0 .741.42l.005.001a.75.75 0 0 1-.599 1.375l.299-.687-.299.687h-.002l-.002-.001-.006-.003-.017-.008a5.893 5.893 0 0 1-.256-.127 8.9 8.9 0 0 1-.676-.396 11.209 11.209 0 0 1-2.035-1.692c-1.499-1.576-3.025-4.086-3.192-7.805a1.71 1.71 0 0 1 1.011-1.628l.847-.384a15.25 15.25 0 0 0 3.217-1.976l.317-.253Z" fill="#5C5F62"/><path d="M14.018 14.75h-.036a2.768 2.768 0 0 0-2.454 1.488.692.692 0 0 0 .614 1.012h3.716c.52 0 .854-.551.614-1.012a2.768 2.768 0 0 0-2.455-1.487Z" fill="#5C5F62"/><path d="M14 13.75a1.5 1.5 0 1 0 0-3 1.5 1.5 0 0 0 0 3Z" fill="#5C5F62"/></svg>
